X:70
T:score16
L:1/8
Q:1/4=96
M:1/4
I:linebreak $
K:Eb
 z B,/B,/ |[M:4/4] B,B,/B,/ B,B,/B,/ EF GB,/B,/ | B,B,/B,/ EG/G/ FD B,B,/B,/ | %3
 B,B,/B,/ B,B,/B,/ EF GE/G/ |$ B2- B/A/G/F/ EG EG/G/ | GG/G/ GG/G/ GcGc | GcGF !>!E!>!D !>!CG/G/ | %7
 GG/G/ GG/G/ GcGc |[M:3/4] Gc B=A B2 |] %9
